rospo-newyear-dark/16x16/clementine/applications-internet.svg

<svg enable-background="new" height="22" width="22" xmlns="http://www.w3.org/2000/svg"><path d="m11 4c-3.866 0-7 3.134-7 7s3.134 7 7 7 7-3.134 7-7-3.134-7-7-7zm-.5 1.9375c.0669-.007.15125.004.21875 0 .008.032-.0487.14587-.125.3125-.48586 1.0614-.51342 2.3044-.0625 2.9688.0816.12046.15625.2351.15625.25s-.088.0312-.1875.0312c-.23358 0-.45462-.14236-.90625-.49999-.20063-.15887-.46145-.29231-.5625-.31251-.15868-.0317-.20098-.0178-.40626.1875-.19099.19096-.24999.29393-.24999.46875 0 .66294.78708 1.1899 2.25 1.5 1.9867.42107 2.4764.79912 2.5312 1.8438.0688 1.31-.6286 2.2978-2.1562 3.0625-.18233.0913-.2985.12675-.375.15625-.0339-.003-.0599.003-.0937 0-.013-.0405-.0312-.13446-.0312-.3125 0-.69578-.27424-1.412-.68749-1.8125-.11093-.10752-.42153-.33535-.68751-.5-.26597-.16464-.53395-.3559-.59375-.4375-.0991-.13541-.10734-.2186-.0312-.46875.13876-.45687.30391-.71133.62499-1 .16833-.15134.33771-.27825.375-.28125.0373-.003-.21515-.0788-.59375-.15625-.37858-.0776-.93237-.24012-1.2187-.34375-.52358-.18945-1.2305-.58716-1.5-.875-.0114-.0122-.0213-.0204-.0312-.0312.38613-1.5381 1.4697-2.7987 2.9062-3.4062.30057-.12713.61042-.21435.9375-.28125.16292-.0333.33178-.0454.5-.0625zm4.6875 2.3438c.11745.0726.56091 1.032.6875 1.5.16344.60419.15161 1.6498 0 2.25-.0577.22844-.13165.44215-.15625.46875s-.11381-.12653-.21875-.3125c-.10495-.18594-.44016-.58105-.71875-.875-.80414-.84853-.93059-1.2916-.59375-1.9688.16987-.34149.9091-1.1186 1-1.0625z" fill="#d3dae3"/></svg>

<?xml version="1.0" encoding="UTF-8" standalone="no"?>
<svg
   xmlns:dc="http://purl.org/dc/elements/1.1/"
   xmlns:cc="http://creativecommons.org/ns#"
   xmlns:rdf="http://www.w3.org/1999/02/22-rdf-syntax-ns#"
   xmlns:svg="http://www.w3.org/2000/svg"
   xmlns="http://www.w3.org/2000/svg"
   xmlns:sodipodi="http://sodipodi.sourceforge.net/DTD/sodipodi-0.dtd"
   xmlns:inkscape="http://www.inkscape.org/namespaces/inkscape"
   id="svg7384"
   style="enable-background:new"
   height="22"
   width="22"
   version="1.1"
   sodipodi:docname="applications-internet.svg"
   inkscape:version="0.92.1 r">
  <metadata
     id="metadata8">
    <rdf:RDF>
      <cc:Work
         rdf:about="">
        <dc:format>image/svg+xml</dc:format>
        <dc:type
           rdf:resource="http://purl.org/dc/dcmitype/StillImage" />
      </cc:Work>
    </rdf:RDF>
  </metadata>
  <sodipodi:namedview
     pagecolor="#ffffff"
     bordercolor="#666666"
     borderopacity="1"
     objecttolerance="10"
     gridtolerance="10"
     guidetolerance="10"
     inkscape:pageopacity="0"
     inkscape:pageshadow="2"
     inkscape:window-width="749"
     inkscape:window-height="480"
     id="namedview6"
     showgrid="false"
     inkscape:zoom="10.727273"
     inkscape:cx="11"
     inkscape:cy="11"
     inkscape:window-x="0"
     inkscape:window-y="0"
     inkscape:window-maximized="0"
     inkscape:current-layer="svg7384" />
  <defs
     id="defs9">
    <style
       type="text/css"
       id="current-color-scheme">
   .ColorScheme-Text { color:#d3dae3; } .ColorScheme-Highlight { color:#5294e2; }
  </style>
  </defs>
  <path
     id="path6214"
     style="color:#d3dae3;fill:currentColor;fill-opacity:1;enable-background:new"
     d="m 11,4 c -3.866,0 -7,3.134 -7,7 0,3.866 3.134,7 7,7 3.866,0 7,-3.134 7,-7 0,-3.866 -3.134,-7 -7,-7 z m -0.5,1.9375 c 0.0669,-0.007 0.15125,0.004 0.21875,0 0.008,0.032 -0.0487,0.14587 -0.125,0.3125 -0.48586,1.0614 -0.51342,2.3044 -0.0625,2.9688 0.0816,0.12046 0.15625,0.2351 0.15625,0.25 C 10.6875,9.4837 10.5995,9.5 10.5,9.5 10.26642,9.5 10.04538,9.35764 9.59375,9.00001 9.39312,8.84114 9.1323,8.7077 9.03125,8.6875 8.87257,8.6558 8.83027,8.6697 8.62499,8.875 8.434,9.06596 8.375,9.16893 8.375,9.34375 c 0,0.66294 0.78708,1.1899 2.25,1.5 1.9867,0.42107 2.4764,0.79912 2.5312,1.8438 0.0688,1.31 -0.6286,2.2978 -2.1562,3.0625 -0.18233,0.0913 -0.2985,0.12675 -0.375,0.15625 -0.0339,-0.003 -0.0599,0.003 -0.0937,0 -0.013,-0.0405 -0.0312,-0.13446 -0.0312,-0.3125 0,-0.69578 -0.27424,-1.412 -0.68749,-1.8125 C 9.70168,13.67378 9.39108,13.44595 9.1251,13.2813 8.85913,13.11666 8.59115,12.9254 8.53135,12.8438 8.43225,12.70839 8.42401,12.6252 8.50015,12.37505 c 0.13876,-0.45687 0.30391,-0.71133 0.62499,-1 C 9.29347,11.22371 9.46285,11.0968 9.50014,11.0938 9.53744,11.0908 9.28499,11.015 8.90639,10.93755 8.52781,10.85995 7.97402,10.69743 7.68769,10.5938 7.16411,10.40435 6.45719,10.00664 6.18769,9.7188 6.17629,9.7066 6.16639,9.6984 6.15649,9.6876 6.54262,8.1495 7.62619,6.8889 9.06269,6.2814 9.36326,6.15427 9.67311,6.06705 10.00019,6.00015 c 0.16292,-0.0333 0.33178,-0.0454 0.5,-0.0625 z m 4.6875,2.3438 c 0.11745,0.0726 0.56091,1.032 0.6875,1.5 0.16344,0.60419 0.15161,1.6498 0,2.25 -0.0577,0.22844 -0.13165,0.44215 -0.15625,0.46875 -0.0246,0.0266 -0.11381,-0.12653 -0.21875,-0.3125 -0.10495,-0.18594 -0.44016,-0.58105 -0.71875,-0.875 -0.80414,-0.84853 -0.93059,-1.2916 -0.59375,-1.9688 0.16987,-0.34149 0.9091,-1.1186 1,-1.0625 z"
     class="ColorScheme-Text"
     inkscape:connector-curvature="0" />
</svg>
